X:90
T:Ciacona in F minor
C:Pachelbel, J.
M:3/4
L:1/8
Q:1/4=58
K:Fmin
|:C2|f4 ef|g2 fg a2|b4 ag|f4 f2|
e4 de|f2 ef g2|a2 bc' de'|f4:|

